X:1
T:Trio Sonata in E-Flat major, HWV 382
T:Trio Sonata in E major, HWV 382 
T:Transcribed for Recorder, Traverso and B/C in G-major from IMSLP#397705 PDF File
T:George Frideric Handel (1685 — 1759) Arr. by : Siegfried Flesch (1933-2007)
T:Public Domain - Non-PD US
T:Public Domain - Non-PD US
T:Public Domain - Non-PD US
T:Public Domain - Non-PD US
T:Public Domain - Non-PD US
T:Public Domain - Non-PD US
T:Public Domain - Non-PD US
T:Public Domain - Non-PD US
C:George Frideric Handel (1685 — 1759)
Z:Public Domain - Non-PD US
%%score [ 1 ( 2 3 ) 4 ] { ( 5 6 8 9 ) | ( 7 10 ) }
L:1/8
Q:1/4=60
M:2/2
K:G
V:1 treble nm="Alto Rec." snm="A. Rec."
V:2 treble nm="Traverso" snm="Trv."
V:3 treble 
V:4 bass nm="Viola da gamba" snm="Vla. d. g."
V:5 treble nm="Harpsichord" snm="Hch."
V:6 treble 
V:8 treble 
V:9 treble 
V:7 bass 
V:10 bass 
V:1
"^1. Adagio" d2- d/>B/G/>e/ d2- d/>B/G/>e/ | dg/B/ cd B/>d/g/>f/ gc | %2
 B/>d/g/>f/ gc/>g/ g/>a/b/>g/ gTf | g2- g/>a/b/>g/ a2- a/>g/a/>f/ | g2- g/>f/g/>e/ f g2 Tf | %5
 g/>a/b/>g/ e2- e/>a/d/>^c/ d2- | Md/>g/^c/>B/ c>c d/>c/d/>e/ Tc>d | d2 z2 z4 | z4 a2- a/>f/d/>b/ | %9
 a2- a/>f/d/>b/ ad'/f/ Tg>a | f2- f/>e/f/(e/4d/4) g2- g/>f/g/Mf/4e/4 | %11
 a2- a/>g/a/(g/4f/4) b2- b/>a/b/(a/4g/4) | ^c'2- c'/>f/b- b/>^a/b/>c'/ Ta>b | %13
 b2- b/>^a/b/>f/ (g/f/)g (g/f/)g- | (g/>f/)(f/>e/) f/>e/(e/>^d/) d e2 d | %15
 e/>^d/e/>f/ Td>e e/>g/e/>d/ e2- | e/>g/e/>^d/ e2- e/>f/d/>^c/ Td3/2(c/4d/4) | %17
 e2 z/ g/Tg3/4(f/8e/8) f2- f/>b/Tf3/4(e/8=d/8) | e2- e/>a/Te3/4(d/8c/8) d2- d/>g/Td3/4(c/8B/8) | %19
 c2- c/>B/c/>d/ B/>A/B/>c/ TA>G | Gd/c/ d2- dB/c/ d2- | dB/A/ B(B/A/) TA3 G | !fermata!G8 |] %23
[M:2/2]"^2. Alla breve"[Q:1/2=100] g4 Tf3 (e/f/) | g2 d2 B2 (AG) | e2 c2 c2 (BA) | d2 B2 B2 (AG) | %27
 A6 A2 | G2 A2 B2 ^c2 | (defg) (efga) | f4 a2 d2- | d2 (BA) B2 d2- | d2 (AG) A2 d2- | d4 T^c4 | %34
 d4 c2 (BA) | (Bcde) (fgab) | g6 cB | B2 g4 (dc) | B2 g4 (cB) | c6 c2 | B4 z4 | d'4 T^c'3 (b/c'/) | %42
 d'2 a2 f2 (ed) | b2 g2 g2 fe | a2 f2 f2 (ed) | e8- | e2 fe d4- | d4 T^c4 | d4 z2 f2 | %49
 e2 ^c2 c2 a2 | a2 (gf) g2 d'2 | c'2 a2 a2 f2 | f2 (ed) e2 b2 | a2 f2 f2 d2 | d2 (cB) c2 g2 | %55
 f2 (gf) (gf) g2- | g2 (fe) f2 c'2- | c'2 (ba) (ba) b2- | b2 (ag) a2 f2 | edef egfe | dcde dfed | %61
 cBcd cedc | B6 B2 | A4 A4 | G4- Gbag | abag f2 ga | gagf e2 fg | f4 z4 | z8 | z8 | z8 | z8 | z8 | %73
 g4 Tf3 (e/f/) | g2 d2 B2 (AG) | e2 c2 c2 (BA) | d2 B2 B2 (AG) | A6 A2 | G4 B4 | ABAB c3 (B/A/) | %80
 B2 G2 g4- | g4 f4- | f2 (e^d) e4- | e2 (^d^c) Td4 | e4 g4 | fgfg a3 (g/f/) | g2 e2 e'4- | %87
 e'4 T^d'4 | e'4 b2 (ag) | a6 (ba) | g4 z4 | abag fgfe | ^d4 e4- | e4 T^d4 | e2 g2 g2 (ab) | %95
 e4 z4 | z2 g2 g2 (ab) | c8- | c2 f2 f2 (ga) | B8- | B2 e2 e2 (fg) | c2 f2 Tf3 (e/f/) | %102
 g4 Tf3 (e/f/) | =g2 d2 B2 (AG) | e2 c2 c2 (BA) | d2 B2 B2 (AG) | A6 A2 | G2 A2 B2 ^c2 | %108
 (defg) (efga) | f4 a2 d2- | d2 (BA) B2 d2- | d2 (AG) A2 d2- | d4 T^c4 | d4 c2 (BA) | %114
 (Bcde) (fgab) | g6 (cB) | B2 g4 (dc) | B2 g4 (cB) | c6 c2 | B2 G2 g4- | g2 (ag) f4- | %121
 f2 (gf) e4- | e2 (fe) d4- | d2 (ed) c4- | c2 (BA) B2 (AG) | A6 A2 | G2 d2 e2 c2- | %127
[Q:1/4=60]"^Adagio" c4 B4 | A8 | !fermata!G8 |][M:6/4]"^3. Andante" z2 (efg^d) eB(gabf) | %131
 g6- g3/2(f/4g/4) (af)(ge) | a6- a3/2(g/4a/4) (bg)(af) | b6- b3/2(a/4b/4) (c'a)(bg) | %134
 ^a6 (=ag)(bg)(af) | ^g6 (=gf)(af)(ge) | f2 g4 ^g2 a4 | ^a2 b4- ba ^c'(b/a/) b(=a/=g/) | %138
 fB b(a/g/) (f/e/d/^c/) de/f/ (e/d/c/B/) dc/B/ | B2 (B^c)(d^A) (BF)(de)(fc) | %140
 d6- d2 ef (g/f/e/d/) | ^c6- c2 de (f/e/d/c/) | B6- B2 ^cd (e/d/c/B/) | %143
 (^A/F/^G/A/) (B/^c/^d/e/) (f/=g/=a/b/) (gd)(eB) [Ee]2- | %144
 [Ee](F/^G/) (A/B/^c/=d/) (e/f/=g/a/) (f^c')(d'a) d2- | %145
 d(e/f/) (g/a/)(b/c'/) (d'/g/)(f/g/) (eb)(c'g) c2- | (cd) TB3 c (c2 c)B c2 | %147
 z2 (ed) e2 z2 (=fe) f2 | z2 ^fe f2 z2 (gf) g2 | z2 (^gf) g2 z2 (ag) a2 | %150
 z2 (^a^g) a2 z2 (b=a)(=gf) | a6- a2 (ag)(fe) | T^d4 e4 Td3 e | (ef)(g^d)(eB) c4 A2- | %154
 A4!8va(! g2 f2 Tf3 e | e2!8va)! z2 B2- B4 TA2 | B12 ||[M:6/8]"^4. Allegro"[Q:3/8=80] d | %158
 g(G/A/B/c/) B2 d | g(G/A/B/c/) B2 g- | ga/g/f/e/ fg/f/e/d/ | eAa- aAa- | ab/a/g/f/ ga/g/f/e/ | %163
 fBb- bBb- | bc'/b/a/g/ ab/a/g/f/ | g3- ga/g/f/e/ | f3- fg/f/e/d/ | eaa a/b/c'/b/a/g/ | %168
 a(b/a/g/f/) a(b/a/g/f/) | g(a/g/f/e/) g(a/g/f/e/) | fga ABc- | c(d/c/B/A/) c(d/c/B/A/) | %172
 B(c/B/A/G/) B(c/B/A/G/) | ABc- c(d/c/B/A/) | B/A/G/A/B/c/ d/c/B/c/d/e/ | dgg gf/e/f | eaa ag/f/g | %177
 ^cgg gf/e/f | Aff fe/d/e | Aee ed/^c/d | Add d^c/B/c- | c/d/e/f/g- g/a/g/a/g/a/ | g>fe fTe>d | %183
 d3- d2 :: a | d'(d/e/f/g/) f2 a | d'(d/e/f/g/) fad'- | d'^c'/b/a/g/ fda | %188
 d'(d/e/f/g/) e/f/e/d/^c/B/ | Ad'/^c'/b/a/ gab | ^c'/d'/c'/b/a/g/ fga | b/^c'/b/a/g/f/ efg | %192
 a/b/a/g/f/e/ def | (gb/c'/d') g3- | (gb/c'/d') g3- | gf/e/f eAa- | ag/f/g f/e/f/g/a/b/ | %197
 g(e/f/g/a/) g2 b | e'(e/f/g/a/) gee'- | e'^d'/^c'/b/a/ gg/a/b | e3- eg/a/b | e3- e^d/^c/d | %202
 e/f/g/a/b c'ec'- | c'd'/c'/b/a/ bdb- | bc'/b/a/g/ aca- | ag/f/g/e/ f/a/f/e/f/d/ | %206
 e/g/e/d/e/c/ d/f/d/c/d/B/ | c/e/c/B/c/A/ B2 z | =f/e/f/d/e/c/ d/c/d/e/f | e/d<Tdc/ caa | %210
 ag z Bgg | gf z Aff | !>!fe z Gee | ed z Fdd | d^c z dd'd' | d'c'/b/c' dc'c' | c'b/a/b dbb | %217
 ba/g/a daa | ag/f/g dgg | gf/e/f- f/g/a/b/c'- | c'/d'/c'/d'/c'/d'/ b>ag | aTf>g g2 :| %222
V:2
 z8 | z4 d2- d/>B/G/>e/ | d2- d/>B/G/>e/ dg/>B/ Tc>d | B/>d/g/>f/ g2- g/>f/g/>e/ fd- | %4
 d/>c/d/>B/ c2- c/>d/B/>c/ BTB/>B/ | G2 z3/4 b/<g/e/4 a2 z/ a/f/>d/ | %6
 g2 z/ g/f/>e/ f/>e/f/>g/ Te>d | da- a/>f/d/>b/ a2- a/>f/d/>b/ | ad'/f/ g>a f/>a/d'/>^c'/ d'g | %9
 f/>a/d'/>^c'/ d'g/>d'/ d'/e'/f'/d'/ d'Tc' | d'/>a/a/>f/ b2- b/>g/e/>b/ ^c'2- | %11
 c'/>a/f/>^c'/ d'2- d'/>b/g/>d'/ e'2- | e'/>f'/d'/>^c'/ d'>f e/>f/g/>e/ T^c>B | %13
 B2 z2 e2- e/>^d/e/>B/ | c/>B/c/>a/ (a/>g/)g/>f/ (f/>g/)(g/>a/) a3/2(g/4f/4) | %15
 g/>f/g/>a/ Tf>e e2- e/>g/e/>^d/ | e2- e/>g/e/>d/ f2- f/>a/g/>f/ | %17
 g/>b/e/>b/ c'2- c'/>a/=d/>a/ b2- | b/>g/c/>g/ a2- a/>f/B/>f/ g2- | %19
 g/>e/A/>e/ f3/2(g/4a/4) g/>f/g/>a/ Tf>g | g2 z a/b/ b2 z a/b/ | [gb]2 z g Tf3 g | !fermata!B8 |] %23
[M:2/2] z8 | z8 | z8 | z8 | z8 | z8 | d'4 T^c'3 (b/c'/) | d'2 a2 f2 (ed) | b2 g4 (fe) | a2 f4 ed | %33
 e6 e2 | d2 e2 f2 (ef) | (gabc') (abc'd') | b4 d'2 g2- | g2 (ed) e2 g2- | g2 (dc) d2 g2- | g4 Tf4 | %40
 g6 (fe) | (fgab) (gab^c') | a6 (gf) | g2 b4 (ag) | f2 a4 (gf) | g6 (ag) | f6 (gf) | %47
 (edef) (efga) | f2 b2 b2 b2 | b2 (ag) a2 e'2 | d'2 b2 b2 g2 | g2 (fe) f2 c'2 | b2 g2 g2 e2 | %53
 e2 (d^c) d2 a2 | g2 e2 e2 c2- | c2 (BA) (BA) B2- | B2 (AG) A2 f2- | f2 (gf) (gf) g2- | %58
 g2 (fe) f2 d'2- | d'4 c'4- | c'4 b4- | b4 a4- | a2 (gf) g4- | g4 Tf4 | g4 e4- | e4 d4- | d4 T^c4 | %67
 d2 d'2 T^c'3 (b/c'/) | d'2 a2 f2 (ed) | b2 g4 (fe) | a2 f4 (ed) | e6 e2 | d2 e2 f2 ed | %73
 (gabc') (abc'd') | b4 d'2 g2- | g2 (ed) e2 g2- | g2 (dc) d2 g2- | g4 Tf4 | g8 | z8 | G4 B4 | %81
 ABAB c3 (B/A/) | B6 (AG) | A6 (GF) | G8 | z8 | e4 g4 | fgfg a3 (g/f/) | g2 e2 e'4- | e'4 T^d'4 | %90
 e'f'e'd' c'd'c'b | c'8- | c'=d'c'b abag | f6 f2 | e8 | z2 g2 g2 (ab) | d4 z4 | z2 a2 a2 (bc') | %98
 f8- | f2 b2 b2 (c'd') | g8- | g2 c'2 c'2 (ba) | b4 z4 | z8 | z8 | z8 | z8 | z8 | %108
 d'4 T^c'3 (b/c'/) | d'2 a2 f2 (ed) | b2 g4 (fe) | a2 f4 (ed) | e6 e2 | d2 e2 f2 (ef) | %114
 (gabc') (abc'd') | b4 d'2 g2- | g2 (ed) e2 g2- | g2 (dc) d2 g2- | g4 Tf4 | g4 z2 d'2 | %120
 c'bab c'2 ba | baga b2 ag | agfg a2 gf | gfef g2 fe | f2 ef g4- | g4 Tf4 | g4 z4 | f4 g4- | %128
 g4 Tf4 | !fermata!g8 |][M:6/4] z6 z2 (ef)g^d | e2 Bc d2 e6- | e2 cd e2 f6- | %133
 f2 de f2 (gf)(af)(ge) | f6- (fe)(ge)(f^d) | e6- (e=d)(fd)(e^c) | d3 cdB e3 dec | f3 efd gffeg=a | %138
 b(f/e/) df b2- b^a Ta3 b | b2 z2 z2 z2 (B^c)(d^A) | B2 fg (a/b/c'/b/) b2 d'2 g2- | %141
 gfef (g/a/b/a/) a2 ^c'2 f2- | fede (f/g/a/g/) g2 (ed^cB) | F2 f2 B2 (eB)(g^d)(eB) | %144
 E2 e2 A2 (=dA)(f^c')(d'a) | f2 (d'g)(gd) cGebc'g | ed Td3 c c2- cB c2 | z2 (cB) c2 z2 (dc) d2 | %148
 z2 (dc) d2 z2 (ed) e2 | z2 (ed) e2 z2 (fe) f2 | z2 (fe) f2 z2 f4- | f2 edcB c4 c'2- | %152
 c'2 bagf g2 Tf3 e | e2 z2 z2 (ab)c'e(f^c) | T^d3 (^c/d/) e2- ef Td3 e | (ef)(ge) fB e3 ^def | %156
 !fermata!^d12 ||[M:6/8] z | z z d g(G/A/B/c/) | B2 d g(G/A/B/c/) | ADd d'dd'- | %161
 d'e'/d'/c'/b/ c'd'/c'/b/a/ | bee'- e'ee'- | e'f'/e'/d'/^c'/ d'e'/d'/c'/b/ | ^c'ff' f'3- | %165
 f'e'/d'/^c'/b/ e'3- | e'd'/^c'/b/a/ d'3- | d'(e'/d'/c'/b/) c'ec'- | %168
 c'(d'/c'/b/a/) c'(d'/c'/b/a/) | bc'/b/a/g/ b(c'/b/a/g/) | abc' fga | a(b/a/g/f/) a(b/a/g/f/) | %172
 g(a/g/f/e/) g(a/g/f/e/) | fga a(b/a/g/f/) | gB/c/d/c/ B/A/G/A/B/c/ | B2 z ad'd' | %176
 d'^c'/b/c' b2 z | z6 | ^caa ag/f/g | ^cgg gf/e/f | ^cff fe/d/e | %181
 a/b/^c'/d'/e'- e'/f'/e'/f'/e'/f'/ | e'>d'^c' d'd'Tc' | d'3- d'2 :: z | z z a d'(d/e/f/g/) | %186
 f2 a d'(d/e/f/g/ | e/f/)e/d/^c/B/ A2 z | fad'- d'^c'/b/a/g/ | fga b/^c'/b/a/g/f/ | %190
 efg a/b/a/g/f/e/ | def g/a/g/f/e/d/ | ^cde f/g/f/e/d/=c/ | B2 z (gb/c'/d') | g3- (gb/c'/d') | %195
 ac'd'- d'c'/b/c' | bee'- e'2 ^d' | e' z b e'(e/f/g/a/) | g2 b e'(e/f/g/a/) | f/g/f/e/^d/^c/ B2 z | %200
 eg/a/b e3- | eg/a/b f>ga/b/ | g2 z A/B/c/d/e | f2 z G/A/B/c/d | e2 z F/G/A/B/c | ^dec' c'bb | %206
 baa agg | g=ff (f/e/)(f/d/)(e/c/) | (d/c/)(d/B/)(c/A/) B/G/B/c/d | ccTB cee | d/c/B/c/d/e/ dBd | %211
 c/B/A/B/c/d/ cAc | B/A/G/A/B/c/ BGB | A/G/F/G/A/B/ AFA | G/F/E/F/G/A/ F2 z | z6 | z2 z fd'd' | %217
 d'c'/b/c' fc'c' | c'b/a/b fbb | ba/g/a d/e/f/g/a- | a/b/a/b/a/b/ gf/e/d | c/B<TAG/ G2 :| %222
V:3
 x8 | x8 | x8 | x8 | x8 | x8 | x8 | x8 | x8 | x8 | x8 | x8 | x8 | x8 | x8 | x8 | x8 | x8 | x8 | %19
 x8 | x3 f/g/ g2 x f/g/ | x8 | x8 |][M:2/2] x8 | x8 | x8 | x8 | x8 | x8 | x8 | x8 | x8 | x8 | x8 | %34
 x8 | x8 | x8 | x8 | x8 | x8 | x8 | x8 | x8 | x8 | x8 | x8 | x8 | x8 | x8 | x8 | x8 | x8 | x8 | %53
 x8 | x8 | x8 | x8 | x8 | x8 | x8 | x8 | x8 | x8 | x8 | x8 | x8 | x8 | x8 | x8 | x8 | x8 | x8 | %72
 x8 | x8 | x8 | x8 | x8 | x8 | x8 | x8 | x8 | x8 | x8 | x8 | x8 | x8 | x8 | x8 | x8 | x8 | x8 | %91
 x8 | x8 | x8 | x8 | x8 | x8 | x8 | x8 | x8 | x8 | x8 | x8 | x8 | x8 | x8 | x8 | x8 | x8 | x8 | %110
 x8 | x8 | x8 | x8 | x8 | x8 | x8 | x8 | x8 | x8 | x8 | x8 | x8 | x8 | x8 | x8 | x8 | x8 | x8 | %129
 x8 |][M:6/4] x12 | x12 | x12 | x12 | x12 | x12 | x12 | x12 | x12 | x12 | x12 | x12 | x12 | x12 | %144
 x12 | x12 | x12 | x12 | x12 | x12 | x12 | x12 | x12 | x12 | x12 | x12 | x12 ||[M:6/8] x | x6 | %159
 x6 | x6 | x6 | x6 | x6 | x6 | x6 | x6 | x6 | x6 | x6 | x6 | x6 | x6 | x6 | x6 | x6 | x6 | x6 | %178
 x6 | x6 | x6 | x6 | x6 | x5 :: x | x6 | x6 | x6 | x6 | x6 | x6 | x6 | x6 | x6 | x6 | x6 | x6 | %197
 x6 | x6 | x6 | x6 | x6 | x6 | x6 | x6 | x6 | x6 | x6 | x6 | x6 | x6 | x6 | x6 | x6 | x6 | x6 | %216
 x6 | x6 | x6 | x6 | x6 | x5 :| %222
V:4
 G,A,B,C G,A,B,C | B,G,A,D, G,B,C z | G,A,B,C B,G,A,D, | G,A,B,G, DD, z D, | E,2 z A, G,DD, F, | %5
 G,2 z G, F,2 z F, | E,2 z E, D,G,A,A,, | D,E,F,G, D,E,F,G, | F,D,E,A,, D,E,F,G, | %9
 D,E,F,G, F,D,E,A,, | D,2- D,/>^C,/D,/>B,,/ E,2- E,/>D,/E,/>C,/ | %11
 F,2- F,/>E,/F,/>D,/ G,2- G,/>F,/G,/>E,/ | ^A,F, B,2 G,E,F,F,, | B,,^C,D,B,, E,F,G,E, | %14
 A,2 z A, A,G,F,B, | G,E,B,B,, E,EB,E | CEG,C A,F,B,B,, | E,G,E,C, D,F,D, B,, | %18
 ^C,E,C,A,, B,,D,B,,^G,, | A,,C,A,,F,, ^G,,C,D,D, | G,,2 z D, G,2 z D, | G,2 z C D2 D,2 | %22
 !fermata!G,8 |][M:2/2] G,4 A,4 | B,8 | C6 C2 | B,6 E2 | C2 A,2 D2 D,2 | G,2 F,2 G,2 E,2 | %29
 D,4 A,4 | D,4 z4 | G,6 G,2 | F,6 F,2 | G,2 E,2 A,2 A,,2 | D,4 z4 | G4 F3 (E/F/) | G2 D2 B,2 A,G, | %37
 E2 C2 C2 B,A, | D2 B,2 B,2 A,G, | A,6 A,2 | G,2 A,2 B,2 ^C2 | DEFG EFGA | F4 D4- | D8- | D8- | %45
 D4 ^C4 | D6 D,2 | G,2 E,2 A,2 A,,2 | D,A,B,^C DEFG | ^CB,CD CDEF | B,A,B,C B,CDE | %51
 A,G,A,B, A,B,CD | G,F,G,A, G,A,B,C | F,E,F,G, F,G,A,B, | E,D,E,F, E,F,G,A, | D,8- | D,8- | D,8- | %58
 D,6 D,2 | G,2 E,2 A,2 G,2 | F,2 D,2 G,2 F,2 | E,2 C,2 F,2 E,2 | D,2 B,,2 E,2 B,,2 | %63
 C,2 A,,2 D,2 D,2 | G,,2 G,F, G,2 F,E, | F,,2 F,E, F,2 E,D, | E,,2 E,D, E,2 E,2 | D,4 E,4 | %68
 F,6 F,2 | G,6 G,2 | F,6 B,2 | G,2 E,2 A,2 A,,2 | D,2 D2 C4 | B,2 G,2 D2 D,2 | G,6 G,2 | G,8- | %76
 G,6 G,2 | D4 D,4 | G,8- | G,4 F,4 | G,F,G,A, B,A,B,C | D4 D,4 | G,6 G,2 | F,6 F,2 | E,8- | %85
 E,4 T^D,4 | E,^D,E,F, G,F,G,E, | B,4 B,,4 | E,4 G,4 | F,G,F,G, A,3 G,/F,/ | G,4 E,4 | %91
 A,2 B,2 C2 A,2 | B,8- | B,8 | E,8 | z2 E2 E,4 | z2 E2 E,4 | z2 A,2 A,,4 | z2 D2 D,4 | %99
 z2 G,2 G,,4 | z2 C2 C,4 | z2 A,2 A,,4 | G,,2 G,2 A,B,CD | B,6 B,2 | C6 C2 | B,6 E2 | %106
 C2 A,2 D2 D,2 | G,2 F,2 G,2 E,2 | D,4 A,4 | D,8 | G,6 G,2 | F,6 B,2 | G,2 E,2 A,2 A,,2 | D,4 z4 | %114
 G4 TE3 (E/F/) | G2 D2 B,2 A,G, | E2 C2 C2 B,A, | D2 B,2 B,2 A,G, | A,6 A,2 | G,4 z2 B,2 | %120
 A,2 A,,2 A,2 G,F, | G,2 G,,2 G,2 F,E, | F,2 F,,2 F,2 E,D, | E,2 E,,2 E,2 D,C, | D,4 G,4 | D4 D,4 | %126
 G,4 z4 | D,8- | D,8 | !fermata!G,,8 |][M:6/4] E,4 z2 E,4 z2 | E,F,G,A, B,2 C4 z2 | %132
 F,G,A,B, C2 D4 z2 | G,A,B,C D2 E4 z2 | E^DFED^C D6 | D^CEDCB, C6 | CA,B,A,B,G, EB,CB,CA, | %137
 F^CDCDB, E6 | D4 E2 F4 F,2 | B,4 z2 B,4 z2 | B,,^C,D,E, F,2 G,6 | A,,B,,^C,D, E,2 F,6 | %142
 G,,A,,B,,^C, D,2 E,6 | E,2 ^D,2 z2 E,4 z2 | D,2 ^C,2 z2 D,4 z2 | C,2 B,,2 z2 C,4 E,2 | %146
 =F,2 G,2 G,,2 C,4 z2 | A,2 A,,2 z2 D2 D,2 z2 | C2 z2 C,2 z2 E2 E,2 | D2 D,2 z2 F2 F,2 z2 | %150
 E2 E,2 z2 ^D,2 ^D2 B,2 | E,4 z2 A,6 | B,4 E,2 A,2 B,2 B,,2 | E,6 A,6 | B,4 E,2 A,2 B,2 B,,2 | %155
 E,4 D,2 C,4 C,2 | !fermata!B,,12 ||[M:6/8] z | G,3- G,B,G, | G,3- G,B,G, | D,3- D,F,D, | %161
 A,3 A,,C,A,, | E,3- E,G,E, | B,3 B,,D,B,, | F,3 B,,^D,B,, | E,3 A,,^C,A,, | D,3- D,F,D, | %167
 A,3- A,A,,A, | D,A,D, D,A,D, | G,D,G,, G,D,G,, | D,6- | D,A,D, D,A,D, | G,D,G,, G,D,G,, | %173
 D,3- D,DD, | G,2 z G,2 z | G,/A,/B,/A,/B,/G,/ DD,D | A,A,,A, E,E,,E, | %177
 A,,/F,/E,/D,/^C,/B,,/ A,,3- | A,,/F,/E,/D,/^C,/B,,/ A,,3- | A,,/F,/E,/D,/^C,/B,,/ A,,3- | %180
 A,,/F,/E,/D,/^C,/B,,/ A,,3- | A,,A,A,, A,,3- | A,,/G,,/A,,/B,,/^C,/A,,/ D,A,A,, | D,3- D,2 :: z | %185
 D,3- D,F,D, | D,3- D,F,D, | A,2 A,, D,2 z | D,F,D, A,2 A,, | D,E,F, G,G,,G, | ^C,D,E, F,F,,F, | %191
 B,,^C, D, E,E,,E, | A,,B,,^C, D,DD, | G,G,,G, D,G,D, | E,G,E, B,,G,B,, | C,A,,D, A,,C,A,, | %196
 E,G,E, B,2 B,, | E,3- E,G,E, | E,3- E,G,E, | B,B,,^D, E,EE, | B,EB, CEC | G,EG, A,F,B, | %202
 E,ED C/B,/A,/G,/F,/E,/ | D,DC B,/A,/G,/F,/E,/D,/ | C,CB, A,/G,/F,/E,/D,/C,/ | B,,E,E D>CD/B,/ | %206
 C>B,C/A,/ B,>A,B,/G,/ | A,>G,A,/=F,/ G,3- | G,3 G,B,G, | CG,G,, C,C/E/C/A,/ | %210
 B,B,, z B,,B,/D/B,/G,/ | A,A,, z A,,A,/^C/A,/F,/ | G,G,, z G,,G,/B,/G,/E,/ | %213
 F,F,, z F,,F,/A,/F,/D,/ | E,E,, z D,/B,/A,/^G,/F,/E,/ | D,3- D,/B,/A,/^G,/F,/E,/ | %216
 D,3- D,/B,/A,/^G,/F,/E,/ | D,3- D,/B,/A,/G,/F,/E,/ | D,3- D,/B,/A,/G,/F,/E,/ | D,3 z3 | %220
 D,F,D, G,/F,/G,/A,/B,/G,/ | CDD, G,2 :| %222
V:5
 Bcde d2 g2 | g2 gf g2 de | dcde dB c/>B/c/>A/ | BcdB A2 z2 | %4
 [G-d]2 [EGc][EGc] [FAc][DGB]/>A/[GB][CFA] | [B,DG]2 z [Be] ed z [Ad] | d^c z [Gc] [Fd]B c2 | %7
 [Ad]2 d2- d/>e/d/>^c/ d2 | d2 d^c [Ad]2 d2 | fgab af g2 | [Adf]2 [Bf]2 [Bg]2 [^cg]2 | %11
 [^ca]2 [da]2 [db]2 [Be]2 | ^c^A cB edce | d/>^c/d/>e/ fd A2 e2 | %14
 [EGc]2 z [Gce] [FB^d]e[Ace][FAd] | [Be]2 [F^d]2 [Ae]2 [GBe]2 | [GBe]2 z2 [Fce]2 [FA^d]2 | %17
 [Be]2 c2 c2 B2 | B2 A2 A2 G2 | G2 F[DA] G2 F2 | [B,DG]2 z [DFA] [DGB]2 z [FAd] | %21
 z2 z [GBe] dc/>B/ c2 | !fermata![DGB]8 |][M:2/2] [DB]4 [Fc]4 | d8 | [Ge]6 [EG]2 | [DG]6 [GB]2 | %27
 A2 cB [Ac-]4 | c2 BA [DA]2 [EG^c]2 | [FAd]4 [EA^c]4 | [FAd]4 z4 | [DB]6 [Bd]2 | [Ad]6 [DA]2 | %33
 B4 ^c4 | [FAd]4 z4 | [Bd]4 [Ad]4 | [Bd]4 [Bdg]4 | g4 e4 | [GB]4 d2 B2 | edcB c2 [CFA]2 | %40
 BABc [Gd]2 [EGA]2 | [FA]2 [Ad]2 [G^c]2 [ce]2 | [Ad]4 [FA]4 | [GB]4 [GBd]4 | [FAd]4 [FA]4 | %45
 (GF)GB [EA]2 [GAe]2 | e2 d^c d4 | [Bd]4 [EG^c]4 | d^cde f4 | edef e4 | d^cde d4 | cBcd c4 | %52
 BABc B4 | AGAB A4 | GFGA G4 | [^CFA]4 D4 | [GBd]4 [FAd]4 | [Acf]4 [Bdg]4 | [GBd]4 [FAd]2 [FAd]2 | %59
 E2 GF G2 [EA-]2 | [Ac]4 B4 | [GB]4 A4 | z ABc BdcB | AGAB AcBA | BcBA [EB]2 [G^ce]2 | e4 d4 | %66
 d4 ^c4 | F4 [G^c]4 | [Ad]6 [Ad]2 | [Bd]6 [DB]2 | [DA]6 [DF]2 | BAGF E2 AG | [DF]2 [EG^c]2 [FAd]4 | %73
 d2 B2 A2 dc | [DB]6 [GBd]2 | [ce]8 | [GBd]6 [DGB]2 | AGAB AcBA | [DGB]2 [B,DG]2 [Bd]4 | %79
 [EAc]4 [DAc]4 | BABc d2 g2 | [Adg]4 [Acf]4 | [Bf]4 [EBe]4 | [Ae]4 [FA^d]4 | [Be]4 BABG | %85
 [Fc]4 [FAB]4 | B4 e4 | [FBe]4 [F^d]4 | [Be]4 e4 | e4 [F^d]4 | [EBe]4 [EGB]4 | [EAc]4 [Ee]4 | %92
 [FAc^d]4 [GBe]4 | [Be]4 BcBA | [B,G]4 [B,EG]4 | z2 [GB]2 [GBe]4 | z2 B2 [GBe]4 | z2 cB [EAc]4 | %98
 z2 cB [FAc]4 | z2 B2 [FBd]4 | z2 e2 [GBe]4 | z2 [Acf][GBe] [Acf]4 | [Bdg]4 cd A2 | [Gdg]6 [Gd]2 | %104
 [Ge]6 [Ge]2 | [Gd]6 [GB]2 | edcB A2 Bc | B2 A2 [DGB]2 [EG^c]2 | [FAd]4 [EG^c]4 | d8 | %110
 [GBd]6 [DGB]2 | [DAd]6 [FBd]2 | [Bd]4 ^c4 | [FAd]4 z4 | [Bd]4 d4 | [Bd]4 [Bdg]4 | [Bg]4 [eg]4 | %117
 [Bg]4 [dg]4 | g4 f4 | [dg]4 z2 [Gd]2 | [Gc]4 c4 | [FB]4 B4 | [EA]4 [DA]4 | [DG]4 [CG]4 | %124
 [A,CF]4 [B,DG]4 | AGAB AcBA | [DGB]4 z4 | D8 | [Ad]8 | !fermata![GBd]8 |] %130
[M:6/4] GB- [Be]2 z2 [GB]4 z2 | B2 e2 [Gd]2 [Ge]4 z2 | e2 a3 g [Adf]4 z2 | d2 g2 [Af]2 [GBe]4 z2 | %134
 [F^A^c]4 [FAe]2 [=ABf]6 | [^GBe]4 [DGd]2 [=GAe]6 | dc d4 [Bd]2 e4 | [^Ae]2 f4 g4 e2 | %138
 [Bf]4 [GBe]2 [Bd]4 [^A^c]2 | [DFB]4 z2 [DF]4 z2 | F2 d3 c [DGB]6 | ^cd e2 [Ec]2 [Ac]6 | %142
 B^c d2 [DB]2 [GB]6 | [^CF^A]2 [B,F=A]2 z2 [B,EG]4 z2 | [B,E^G]2 [A,E=G]2 z2 [A,DF]4 z2 | %145
 [DFA]2 [DG]2 z2 [EG]4 [Gc]2 | [Ac]2 [GB]4 [EGc]4 z2 | cB c2 z2 BA B2 z2 | %148
 [Ge]2 [Ad^f]2 z2 [^ce][Bd] [Gce]2 z2 | [Af]2 [^GBe]2 z2 [A^d][=G^c] [FAd]2 z2 | %150
 [Bg]2 [^A^cf]2 z2 [Bf][ce] B2 [Ad]2 | f2 e2 z2 e4 c2 | [F^d]4 [Ge]4 [Fd]4 | [GBe]6 [Ec]6 | %154
 c2 BA [B,G]2 [CEF]2 [^DF]2 [B,DA]2 | [B,EG]4 [B,FB]2 [EGB]4 [EA]2 | !fermata![B,^DFB]12 || %157
[M:6/8] z | [DB]3- [DB]GB | [G-Bd-]3 [GBd][Gd][Bdg] | gf/e/f A[Ad][Adf] | [Ae]3- [Ace][EA][EAc] | %162
 [EB]3 [GBe][EB][GBe] | ed/^c/d [DF][FB][FBd] | [B^c][A=c]/[GB]/[Ac] [AB]2 [A^d] | [GBe]3 ^c e2 | %166
 ed/e/f- faf | [Ae-]3 [Ace]ag | [Acf]3 [Acf]3 | [Bdg]3 [GBd]3 | D6 | [FAc]3 [FAc]3 | %172
 [DGB]3 [DGB]3 | D3- D [Acf]2 | [Bdg]2 z [GBd]2 z | B/c/d/c/d/B/ A d2 | d^c/d/[ce] [Be]3 | %177
 [G^ce]3 [Gce] [FAd]2 | [EA^c] [FAd]2 [FAd] [Gce]2 | [G^ce]3 [Gce] [FAd]2 | [EA^c] [FAd]2 d c2 | %181
 [G^cg]3 [Gce]3 | ^c/B/c/d/e fe/f/g/e/ | (f(Ad- [Adf]2)) :: z | [F-A]3 [FA][DA][FAd] | %186
 [FAd]3- [FAd][Ad][Af] | [Ade]2 [G^ce] [FAd]2 z | A d2 [EAd]2 [EG^c] | d3 [GBd]3 | e3 [Ae]3 | %191
 d3 [Gd]3 | ^c3 [FA=c]3 | [DGB]2 B/A/ [GB]2 B | [GB]2 B/c/ [Gd]2 d | Ac/B/A de/d/c | %196
 [EB]2 [Ge] [FBe]2 [FA^d] | [GBe]3- [GBe][B,E][B,G] | [EGB]3- [EGB][EB][GBe] | e^dB [GB]2 e/d/ | %200
 [Ge]2 e/^d/ [Ge]2 e | [Be]2 e/=d/ [ce]2 ^d | [GBe]2 [^GBe] e2 e | [Acf]2 [Adf] [dg]2 d | %204
 [GBe]2 [Gce] [cf]2 e | [FA^d][GBe][Gc] c B2 | B A2 A G2 | G=F[Ac] [DFB]2 z | G3 [B,D][DG][DB] | %209
 .[EGc][DGB][D=FB] c e2 | d2 z d3 | c2 z c3 | B2 z B3 | A2 z A3 | [DGB][EG^c] z [FAd]3 | %215
 [Bd][Ac]/B/c c3 | [FAc][GB]/[FA]/[GB] [FA] [FBd]2 | [FBd] [FAc]2 c3 | [FAc] [GB]2 [FA]GB | d3 z3 | %220
 d2 c B/A/B/c/d | eA/B/c/A/ [DGB]2 :| %222
V:6
 D2 G2 Bcde | dB c2 Bc G2 | BG G2 G2 G[DF] | [DG]2 G2 G/>F/E/G/4 [DFA][FAd] x/4 | x8 | x4 A2 x2 | %6
 G2 x4 EG | FGAB FGAB | AF G2 FGAB | A2 d2 d2 [Bd]^c | x8 | x8 | [Fe]2 [Fd]2 B2 [F^A]2 | %13
 F2 B2 F/>F/G/>=A/BG | x4 z4 | EG BA x4 | x8 | GEGE FDFD | ECEC DB,DB, | CA,CA, [B,D]EA,C | x8 | %21
 x4 [FA]2 [FA]2 | x8 |][M:2/2] x8 | G8 | x8 | x8 | G4 G2 F2 | [DG]4 x4 | x8 | x8 | x8 | x8 | %33
 D2 GF G2 AG | x8 | x8 | x8 | B2 ed G2 c2 | x8 | G4 x4 | x8 | x8 | x8 | x8 | x8 | x8 | %46
 [FA]6 [FA]2 | E2 GF x4 | [FA]4 B^c [Bd]2 | x4 AB [A^c]2 | A4 GA [FA]2 | G4 FG [FA]2 | %52
 F4 EF [EG]2 | E4 DE [DF]2 | D4 CD [B,D]2 | x8 | x8 | x8 | x8 | x4 c4 | D2 FE F2 [DG]2 | %61
 C2 ED E2 [CF]2 | B,2 D2 [DG]4 | E4 [CF]4 | [DG]4 x4 | A3 G A2 GF | G3 F G2 FE | x8 | x8 | x8 | %70
 x8 | D4 ^C4 | x8 | x4 F4 | x8 | G8 | x8 | G4 F4 | x4 GAGF | x8 | D4 G4 | x8 | x8 | x8 | GFGA G4 | %85
 ABAG x4 | GFGA BABG | x4 AcBA | GFGA BABG | ABAB c2 x2 | x8 | x4 A2 c2 | x8 | FGFE ^D4 | %94
 GFE^D x4 | x8 | x2 GF x4 | x2 E2 x4 | x2 F2 x4 | x2 FE x4 | x2 BA x4 | x8 | x4 f2 ef | x8 | x8 | %105
 x8 | [GA]4 F4 | D4 x4 | x8 | [FA]8 | x8 | x8 | EFGA GF [EG]2 | x8 | x4 A3 G/A/ | x8 | x8 | x8 | %118
 cBcd cedc | x8 | x4 F2 [DA]2 | x4 E2 G2 | x6 F2 | x6 E2 | x8 | G4 F4 | x8 | x8 | x8 | D8 |] %130
[M:6/4] G4 x8 | GAB=c x8 | ABcd [Ae]2 x6 | Bcde dc x6 | x12 | x12 | [FA]2 G3 B ^G2 A3 c | %137
 x2 B3 d [^A^c]2 Ac [GB]c | x10 FE | x12 | DEFG [DA]2 x6 | [EG]4 GB E4 DE | [DF]4 FA D4 ^CD | x12 | %144
 x12 | x12 | ED DE =F2 x6 | [EG]4 x2 =F4 x2 | cB x4 G2 x4 | dc x10 | e=d x6 f4 | %151
 [GB]4 x2 [Gc]4 [FA]G | [Ac]2 [GB]A B2 c2 B2 A2 | x6 A4 G2 | [^DF]4 x8 | x6 GF G2 x2 | x12 || %157
[M:6/8] x | x4 D2 | x6 | [Ad]3 x3 | dc/B/c x3 | AG/F/G- x3 | [FB]3 x3 | F2 E ^DFF | %165
 FE/F/G [GA]2 [G^c] | [FAd]2 [A-d] [Ad] [Ad]2 | dc/B/c x [Ace]2 | x6 | x6 | x6 | x6 | x6 | x6 | %174
 x6 | D2 G GF/G/[FA] | [EA]3 AG/A/G | x6 | x6 | x6 | x3 [FA]G/F/G | x6 | [EG]2 A A[Ad][A^c] | x5 :: %184
 x | x6 | x6 | x6 | F[DA]F x3 | [FA]GA x3 | [GB]FG x3 | [FA]EF x3 | [EG]DE x3 | x2 D x2 G/F/ | %194
 x2 G x2 G/F/ | [EG]2 F [EA]2 [EA] | AG/A/B x3 | x6 | x6 | [FB]2 [FA]2 x [GB] | x2 G x2 G/A/ | %201
 x2 B FA/G/[FA] | x3 Ac/B/[Ac] | x3 GB/A/[GB] | x3 FA/G/[FA] | x3 F>EF | E>DE D>CD | C>B,=F/E/ x3 | %208
 x6 | x3 [EG]A>[Gc] | [FA]G x G/F<G[FB]/ | [EG]F z F/E<F[EA]/ | [DF]E z E/D<E[DG]/ | %213
 [^CG][DF] z D/C<D[CF]/ | x6 | F2 A/G/ [FA]2 A/G/ | x6 | x3 [FA]2 A/G/ | x4 D2 | [GB]2 [FA] x3 | %220
 [FA]/G/AF D2 G- | G F2 x2 :| %222
V:7
 G,A,B,C G,A,B,C | B,G,A,D, G,A,B,C | G,A,B,C B,G,A,D, | G,A,B,G, DD, z D, | E,2 z A, G,DD, F, | %5
 G,2 z G, F,2 z F, | E,2 z E, D,G,A,A,, | D,E,F,G, D,E,F,G, | F,D,E,A,, D,E,F,G, | %9
 D,E,F,G, F,D,E,A,, | D,2- D,/>^C,/D,/>B,,/ E,2- E,/>D,/E,/>C,/ | %11
 F,2- F,/>E,/F,/>D,/ G,2- G,/>F,/G,/>E,/ | ^A,F, B,2 G,E,F,F,, | B,,^C,D,B,, E,F,G,E, | %14
 A,2 z A, A,G,F,B, | G,E,B,B,, E,EB,E | CEG,C A,F,B,B,, | E,G,E,C, D,F,D,B,, | %18
 C,E,C,A,, B,,D,B,,G,, | A,,C,A,,F,, G,,C,D,D, | G,,2 z D, G,2 z D, | G,2 z C D2 D,2 | %22
 !fermata!G,8 |][M:2/2] G,4 A,4 | B,8 | C4 C2 z2 | B,6 E2 | C2 A,2 D2 D,2 | G,2 F,2 G,2 E,2 | %29
 D,4 A,4 | D,4 z4 | G,6 G,2 | F,6 F,2 | G,2 E,2 A,2 A,,2 | D,4 z4 | G4 F3 (E/F/) | G2 D2 B,2 A,G, | %37
 E2 C2 C2 B,A, | D2 B,2 B,2 A,G, | A,6 A,2 | G,2 A,2 B,2 ^C2 | DEFG EFGA | F4 D4- | (D8 | D8-) | %45
 D4 T^C4 | D6 D,2 | G,2 E,2 A,2 A,,2 | D,A,B,^C DEFG | ^CB,CD CDEF | B,A,B,C B,CDE | %51
 A,G,A,B, A,B,CD | G,F,G,A, G,A,B,C | F,E,F,G, F,G,A,B, | E,D,E,F, E,F,G,A, | D,8- | D,8- | D,8- | %58
 D,6 D,2 | G,2 E,2 A,2 G,2 | F,2 D,2 G,2 F,2 | E,2 C,2 F,2 E,2 | D,2 B,,2 E,2 B,,2 | %63
 C,2 A,,2 D,2 D,2 | G,,2 G,F, G,2 F,E, | F,,2 F,E, F,2 E,D, | E,,2 E,D, E,2 E,2 | D,4 E,4 | %68
 F,6 F,2 | G,6 G,2 | F,6 B,2 | G,2 E,2 A,2 A,,2 | D,2 D2 C4 | B,2 G,2 D2 D,2 | G,6 G,2 | G,8- | %76
 G,6 G,2 | D4 D,4 | G,8- | G,4 F,4 | G,F,G,A, B,A,B,C | D4 D,4 | G,6 G,2 | F,6 F,2 | E,8- | %85
 E,4 T^D,4 | E,^^D,E,F, G,F,G,E, | B,4 B,,4 | E,4 z4 | F,G,F,G, A,3 G,/F,/ | G,4 E,4 | %91
 A,2 B,2 C2 A,2 | (B,8 | B,8) | E,8 | z2 E2 E,4 | z2 E2 E,4 | z2 A,2 A,,4 | z2 D2 D,4 | %99
 z2 G,2 G,,4 | z2 C2 C,4 | z2 A,2 A,,4 | G,,2 G,2 A,B,CD | B,6 B,2 | C6 C2 | B,6 E2 | %106
 C2 A,2 D2 D,2 | G,2 F,2 G,2 E,2 | D,4 A,4 | D,8 | G,6 G,2 | F,6 B,2 | G,2 E,2 A,2 A,,2 | D,4 z4 | %114
 z4 TF3 (E/F/) | G2 D2 B,2 A,G, | E2 C2 C2 B,A, | D2 B,2 B,2 A,G, | A,6 A,2 | A,4 z2 B,2 | %120
 A,2 A,,2 A,2 G,F, | G,2 G,,2 G,2 F,E, | F,2 F,,2 F,2 E,D, | E,2 E,,2 E,2 D,C, | D,4 G,4 | D4 D,4 | %126
 G,4 z4 | D,8- | D,8 | !fermata!G,,8 |][M:6/4] E,4 z2 E,4 z2 | E,F,G,A, B,2 =C4 z2 | %132
 F,G,A,B, =C2 D4 z2 | G,A,B,C D2 E4 z2 | E^DFED^C D6 | D^CEDCB, C6 | CA,B,A,B,G, EB,CB,CA, | %137
 F^CDCDB, E4 z2 | D4 E2 F4 F,2 | B,4 z2 B,4 z2 | B,,^C,D,E, F,2 G,6 | A,,B,,^C,D, E,2 F,6 | %142
 G,,A,,B,,^C, D,2 E,6 | E,2 ^D,2 z2 E,4 z2 | =D,2 ^C,2 z2 D,4 z2 | C,2 B,,2 z2 C,4 E,2 | %146
 =F,2 G,2 G,,2 C,4 z2 | A,2 A,,2 z2 D2 D,2 z2 | C2 C,2 z2 E2 E,2 z2 | D2 D,2 z2 F2 F,2 z2 | %150
 E2 E,2 z2 ^D,2 ^D2 B,2 | E,4 z2 A,6 | B,4 E,2 A,2 B,2 B,,2 | E,6 A,6 | B,4 E,2 A,2 B,2 B,,2 | %155
 E,4 D,2 C,4 C,2 | !fermata!B,,12 ||[M:6/8] z | G,3- G,B,G, | G,3- G,B,G, | D,3- D,F,D, | %161
 A,3 A,,C,A,, | E,3- E,G,E, | B,3 B,,D,B,, | F,3 B,,^D,B,, | E,3 A,,^C,A,, | D,3- D,F,D, | %167
 A,3- A,A,,A, | D,A,D, D,A,D, | G,D,G,, G,D,G,, | D,6- | D,A,D, D,A,D, | G,D,G,, G,D,G,, | %173
 D,3- D,DD, | G,2 z G,2 z | G,/A,/B,/A,/B,/G,/ DD,D | A,A,,A, E,E,,E, | %177
 A,,/F,/E,/D,/^C,/B,,/ A,,3- | A,,/F,/E,/D,/^C,/B,,/ (A,,3 | A,,/)F,/E,/D,/^C,/B,,/ A,,3- | %180
 A,,/F,/E,/D,/^C,/B,,/ A,,3- | A,,A,A,, A,,3- | A,,/G,,/A,,/B,,/^C,/A,,/ D,A,A,, | D,3- D,2 :: z | %185
 D,3- D,F,D, | D,3- D,F,D, | A,2 A,, D,2 z | D,F,D, A,2 A,, | D,E,F, G,G,,G, | ^C,D,E, F,F,,F, | %191
 B,,^C,D, E,E,,E, | A,,B,,^C, D,DD, | G,G,,G, D,G,D, | E,G,E, B,,G,B,, | C,A,,D, A,,C,A,, | %196
 E,G,E, B,2 B,, | E,3- E,G,E, | E,3- E,G,E, | B,B,,^D, E,EE, | B,EB, CEC | G,EG, A,F,B, | %202
 E,ED C/B,/A,/G,/F,/E,/ | D,DC B,/A,/G,/F,/E,/D,/ | C,CB, A,/G,/F,/E,/D,/C,/ | B,,E,E D>CD/B,/ | %206
 C>B,C/A,/ B,>A,B,/G,/ | A,>G,A,/=F,/ G,3- | G,3 G,B,G, | CG,G,, C,C/E/C/A,/ | %210
 B,B,, z B,,B,/D/B,/G,/ | A,A,, z A,,A,/C/A,/F,/ | G,G,, z G,,G,/B,/G,/E,/ | %213
 F,F,, z F,,F,/A,/F,/D,/ | E,E,, z D,/B,/A,/G,/F,/E,/ | D,3- D,/B,/A,/G,/F,/E,/ | %216
 D,3- D,/B,/A,/G,/F,/E,/ | D,3- D,/B,/A,/G,/F,/E,/ | D,3- D,/B,/A,/G,/F,/E,/ | D,3 z3 | %220
 D,F,D, G,/F,/G,/A,/B,/G,/ | CDD, G,2 :| %222
V:8
 x8 | x8 | x8 | x8 | x8 | x8 | x8 | x8 | x8 | x8 | x8 | x8 | x8 | x8 | x8 | x8 | x8 | x8 | x8 | %19
 x8 | x8 | x8 | x8 |][M:2/2] x8 | x8 | x8 | x8 | x8 | x8 | x8 | x8 | x8 | x8 | x8 | x8 | x8 | x8 | %37
 x8 | x8 | x8 | x8 | x8 | x8 | x8 | x8 | x8 | x8 | x8 | x8 | x8 | x8 | x8 | x8 | x8 | x8 | x8 | %56
 x8 | x8 | x8 | x8 | x8 | x8 | F4 x4 | x2 C2 x4 | x8 | x8 | x8 | x8 | x8 | x8 | x8 | x8 | x8 | x8 | %74
 x8 | x8 | x8 | x8 | x8 | x8 | x8 | x8 | x8 | x8 | x8 | x8 | x8 | x8 | x8 | x3 B2 B2 x | x8 | x8 | %92
 x8 | x8 | x8 | x8 | x8 | x8 | x8 | x8 | x8 | x8 | x8 | x8 | x8 | x8 | x8 | x8 | x8 | x8 | x8 | %111
 x8 | x8 | x8 | x8 | x8 | x8 | x8 | x8 | x8 | x8 | x8 | x8 | x8 | x8 | x8 | x8 | x8 | G4 F4 | x8 |] %130
[M:6/4] x12 | x12 | x12 | x12 | x12 | x12 | x12 | x12 | x12 | x12 | x12 | x12 | x12 | x12 | x12 | %145
 x12 | x12 | x12 | x12 | x12 | x12 | x12 | x12 | x12 | x12 | x12 | x12 ||[M:6/8] x | x6 | x6 | x6 | %161
 x6 | x6 | x6 | x6 | x6 | x6 | x6 | x6 | x6 | x6 | x6 | x6 | x6 | x6 | x6 | x6 | x6 | x6 | x6 | %180
 x6 | x6 | x6 | x5 :: x | x6 | x6 | x6 | x6 | x6 | x6 | x6 | x6 | x6 | x6 | x6 | x6 | x6 | x6 | %199
 x6 | x6 | x6 | x6 | x6 | x6 | x6 | x6 | x6 | x6 | x6 | x6 | x6 | x6 | x6 | x6 | x6 | x6 | x6 | %218
 x6 | x6 | x6 | x5 :| %222
V:9
 x8 | x8 | x8 | x8 | x8 | x8 | x8 | x8 | x8 | x8 | x8 | x8 | x8 | x8 | x8 | x8 | x8 | x8 | x8 | %19
 x8 | x8 | x8 | x8 |][M:2/2] x8 | x8 | x8 | x8 | x8 | x8 | x8 | x8 | x8 | x8 | x8 | x8 | x8 | x8 | %37
 x8 | x8 | x8 | x8 | x8 | x8 | x8 | x8 | x8 | x8 | x8 | x8 | x8 | x8 | x8 | x8 | x8 | x8 | x8 | %56
 x8 | x8 | x8 | x8 | x8 | x8 | x8 | x8 | x8 | x8 | x8 | x8 | x8 | x8 | x8 | x8 | x8 | x8 | x8 | %75
 x8 | x8 | x8 | x8 | x8 | x5 cde | x8 | x8 | x8 | x8 | x8 | x8 | x8 | x8 | x8 | x8 | x8 | x8 | x8 | %94
 x8 | x8 | x8 | x8 | x8 | x8 | x8 | x8 | x8 | x8 | x8 | x8 | x8 | x8 | x8 | x8 | x8 | x8 | x8 | %113
 x8 | x8 | x8 | x8 | x8 | x8 | x8 | x8 | x8 | x8 | x8 | x8 | x8 | x8 | x8 | x8 | x8 |][M:6/4] x12 | %131
 x12 | x12 | x12 | x12 | x12 | x12 | x12 | x12 | x12 | x12 | x12 | x12 | x12 | x12 | x12 | x12 | %147
 x12 | x12 | x12 | x12 | x12 | x12 | x12 | x12 | x12 | x12 ||[M:6/8] x | x6 | x6 | x6 | x6 | x6 | %163
 x6 | x6 | x6 | x6 | x6 | x6 | x6 | x6 | x6 | x6 | x6 | x6 | x6 | x6 | x6 | x6 | x6 | x6 | x6 | %182
 x6 | x5 :: x | x6 | x6 | x6 | x6 | x6 | x6 | x6 | x6 | x6 | x6 | x6 | x6 | x6 | x6 | x6 | x6 | %201
 x6 | x6 | x6 | x6 | x6 | x6 | x6 | x6 | x6 | x6 | x6 | x6 | x6 | x6 | x6 | x6 | x6 | x6 | x6 | %220
 x6 | x5 :| %222
V:10
 x8 | x8 | x8 | x8 | x8 | x8 | x8 | x8 | x8 | x8 | x8 | x8 | x8 | x8 | x8 | x8 | x8 | x8 | x8 | %19
 x8 | x8 | x8 | x8 |][M:2/2] x8 | x8 | x8 | x8 | x8 | x8 | x8 | x8 | x8 | x8 | x8 | x8 | x8 | x8 | %37
 x8 | x8 | x8 | x8 | x8 | x8 | x8 | x8 | x8 | x8 | x8 | x8 | x8 | x8 | x8 | x8 | x8 | x8 | x8 | %56
 x8 | x8 | x8 | x8 | x8 | x8 | x8 | x8 | x8 | x8 | x8 | x8 | x8 | x8 | x8 | x8 | x8 | x8 | x8 | %75
 x8 | x8 | x8 | x8 | x8 | x8 | x8 | x8 | x8 | x8 | x8 | x8 | x8 | x8 | x8 | x8 | x8 | x8 | x8 | %94
 x8 | x8 | x8 | x8 | x8 | x8 | x8 | x8 | x8 | x8 | x8 | x8 | x8 | x8 | x8 | x8 | x8 | x8 | x8 | %113
 x8 | x8 | x8 | x8 | x8 | x8 | x8 | x8 | x8 | x8 | x8 | x8 | x8 | x8 | x8 | x8 | x8 |][M:6/4] x12 | %131
 x12 | x12 | x12 | x12 | x12 | x12 | x12 | x12 | x12 | x12 | x12 | x12 | x12 | x12 | x12 | x12 | %147
 x12 | x12 | x12 | x12 | x12 | x12 | x12 | x12 | x12 | x12 ||[M:6/8] x | x6 | x6 | x6 | x6 | x6 | %163
 x6 | x6 | x6 | x6 | x6 | x6 | x6 | x6 | x6 | x6 | x6 | x6 | x6 | x6 | x6 | x6 | x6 | x6 | x6 | %182
 x6 | x3 D2 :: x | x6 | x6 | x6 | x6 | x6 | x6 | x6 | x6 | x6 | x6 | x6 | x6 | x6 | x6 | x6 | x6 | %201
 x6 | x6 | x6 | x6 | x6 | x6 | x6 | x6 | x6 | x6 | x6 | x6 | x6 | x6 | x6 | x6 | x6 | x6 | x6 | %220
 x6 | x5 :| %222

